X:1
T:Title
%%score 1 { ( 2 4 ) | 3 }
L:1/8
Q:1/4=95
M:4/4
K:A
V:1 treble nm="Grand Piano, Soprano"
V:2 bass nm="Choir Pad, He Loves Me"
V:4 bass 
V:3 bass 
V:1
 [CE] [CF]2 [CE] [Ec] [Ec]2 [EB] | [FA]2 [DF][DA] [CE]4 | [CE] [CF]2 [CE] [Ec] [Ec]2 [CA] | %3
w: By~Charles~Hutchinson~Gabriel,~Jr. * * * * *|||
 [^DF]2 [DB][Dc] [=DB]4 | [CE] [CF]2 [CE] [Ec] [Ec]2 [EB] | [FA]2 [DF][DA] [CE]4 | %6
w: |||
 [DF][EG][FA][GB] [Ac][Bd] [ce]<.[df] | [Ac]2 [GB]2 [EA]4 | [CE]2 [A,C]2 [CE] [CA]2 [DB] | %9
w: |||
 [Ec][Ee][Ec][DB] [CA]4 | [DF]2 [DA]2 [CE] [CA]2 [Ec] | [^Dc][DB][DF][Dc] [=DB]4 | %12
w: |||
 [Ee]2 [Ec]2 [CA] [Ec]2 [Ec] | [DB][DA][DF][DA] [CE]4 | [DF][EG][FA][GB] [Ac][Bd] [ce]<.[df] | %15
w: |||
 [Ac]2 [GB]2 [EA]4- | [EA]4 z4 |] %17
w: ||
V:2
 A, A,2 A, A, A,2 A, | D2 A,A, A,4 | A, A,2 A, A, A,2 A, | z4 G,4 | A, A,2 A, A, A,2 A, | %5
 D2 A,A, A,4 | F,G,A,B,[K:treble] CD E<.F | E2 D2 C4 | A,2 E,2 A, A,2 G, | A,CA,G, A,4 | %10
 A,2 A,2 A, A,2 A, | z4 G,4 | C2 A,2 E, A,2 A, | F,F,A,A, A,4 | F,G,A,B,[K:treble] CD E<.F | %15
 E2 D2 C4- | C4 z4 |] %17
V:3
 A,, A,,2 A,, A,, A,,2 C, | D,2 D,F, z4 | A,, A,,2 A,, A,, A,,2 A,, | B,,2 B,,B,, E,4 | %4
 A,, A,,2 A,, A,, A,,2 C, | D,2 D,F, z4 | D,E,F,G, A,B, C<.D | E,2 E,2 A,,4 | %8
 A,,2 A,,2 A,, A,,2 E, | z A,E,E, A,,4 | D,2 F,2 z2 z A,, | B,,B,,A,,A,, E,4 | %12
 A,,2 A,,2 A,, A,,2 A,, | D,D,D,F, z4 | D,E,F,G, A,B, C<.D | E,2 E,2 A,,4- | A,,4 z4 |] %17
V:4
 x8 | x8 | x8 | A,2 A,A, z D,C,B,, | x8 | x8 | x4[K:treble] x4 | x8 | x8 | x8 | x8 | %11
 A,A,A,A, z D,C,B,, | x8 | x8 | x4[K:treble] x4 | x8 | x8 |] %17

